!!!!SEGMENT: pl-kk--kk-i-88--002-002_golabek-jakub--missa-2-christe.krn
!!!cenid: 17xx:2576
!!!COM: Gołąbek, Jakub
!!!COM-rismID: pe30008748
!!!CDT: 1739-1789/03/30
!!!CNT: Polish
!!!OPR: Missa 2
!!!OTL: Christe
!!!OMV: 002
!!!PDT:
!!!AGN: Sacred; Mass
!!!YEC: Copyright 2022 Narodowy Instytut Fryderyka Chopina (https://polishscores.org)
!!!YEM: License CC-BY-4.0 (https://creativecommons.org/licenses/by/4.0)
!!!SMS-siglum: PL-Kk
!!!SMS-shelfmark: Kk.I.88
!!!SMS-variant:
!!!SMS-altvar:
!!!SMS-shelfwork: 002-002 M
!!!NIFC-rismSourceID: 1001164072
!!!NIFC-rismChildID: 1001164081
!!!NIFC-islandoraID:
!!!URL-pdf-islandora: https://repozytorium.nifc.pl/islandora/object/pl-kk%3A3086/datastream/PDF/view
!!!URL-scan: https://polish.musicsources.pl/pl/lokalizacje/galeria/rekopisy/6148-missa/4 @EN{Scan on Polish Music Sources Website} @PL{Skany w portalu Dziedzictwo Muzyki Polskiej w otwartym dostępie}
!!!IIIF:
!!!ONB-nifc: UWAGA: C - f. 4r-5v; A - f. 12r-13v; T - f. 20r-21v; B - f. 28r-29v; B rip - f. 34r-35v. Proszę uwzględniać B rip. Części Mszy: 1. Kyrie, 2. Christe, 3. Et in terra, 4. Sanctus, 5. Osanna, 6. Benedictus, 7. Agnus Dei.
!!!OMD:
!!!AIN: 1 alto 2 bass 1 canto 1 tenor
!!!key: F
**kern	**text	**kern	**text	**kern	**text	**kern	**text	**dynam	**kern	**text	**dynam
*part5	*part5	*part4	*part4	*part3	*part3	*part2	*part2	*part2	*part1	*part1	*part1
*staff5	*staff5	*staff4	*staff4	*staff3	*staff3	*staff2	*staff2	*	*staff1	*staff1	*
*I"Baſso E ripieno	*	*I"Baſso	*	*I"Tenore	*	*I"Alto	*	*	*I"Canto	*	*
*I'B rip	*	*I'B	*	*I'T	*	*I'A	*	*	*I'S	*	*
*Ibass	*	*Ibass	*	*Itenor	*	*Ialto	*	*	*Icanto	*	*
*ICvox	*	*ICvox	*	*ICvox	*	*ICvox	*	*	*ICvox	*	*
*clefF4	*	*clefF4	*	*clefC4	*	*clefC3	*	*	*clefC1	*	*
*k[b-]	*	*k[b-]	*	*k[b-]	*	*k[b-]	*	*	*k[b-]	*	*
*F:	*	*F:	*	*F:	*	*F:	*	*	*F:	*	*
*M2/2	*	*M2/2	*	*M2/2	*	*M2/2	*	*	*M2/2	*	*
*met(c|)	*	*met(c|)	*	*met(c|)	*	*met(c|)	*	*	*met(c|)	*	*
=1	=1	=1	=1	=1	=1	=1	=1	=1	=1	=1	=1
*	*	*	*	*	*	*	*	*	*2\right	*	*
1r	.	1r	.	2F/	Chri-	4f\	Chris-	.	2a\	Chri-	.
.	.	.	.	.	.	4c\	-te	.	.	.	.
.	.	.	.	4F/	-ste	4d\	.	.	4b-\	-ste	.
.	.	.	.	4F/	e-	4c\	e-	.	4a\	e-	.
=2	=2	=2	=2	=2	=2	=2	=2	=2	=2	=2	=2
2r	.	2r	.	4F/	-lei-	4c/	-lei-	.	4a\	-lei-	.
.	.	.	.	4E/	.	4B-/	.	.	4g\	.	.
4r	.	4r	.	4F/	-son	4A/	-son	.	4f\	-son	.
4C/	e-	4C/	e-	4E/	e-	4c/	e-	.	4g\	e-	.
=3	=3	=3	=3	=3	=3	=3	=3	=3	=3	=3	=3
4F\	-lei-	4F\	-lei-	1F	-lei-	4f\	-lei-	.	4a\	-lei-	.
4E\	.	4E\	.	.	.	4g\	.	.	4b-\	.	.
.	.	.	.	.	.	8qqb-/	.	.	8qqdd/	.	.
8F\L	.	8F\L	.	.	.	4a\	.	.	4cc\	.	.
8G\	.	8G\	.	.	.	.	.	.	.	.	.
8A\	.	8A\	.	.	.	8g\L	.	.	8b-\L	.	.
8Bn\J	.	8Bn\J	.	.	.	8f\J	.	.	8a\J	.	.
=4	=4	=4	=4	=4	=4	=4	=4	=4	=4	=4	=4
.	.	.	.	.	.	8qqf/	.	.	.	.	.
*2\right	*	*2\right	*	*2\right	*	*2\right	*	*	*	*	*
2c\	-son	2c\	-son	2c\	-son	2e\	-son	.	2g/	-son	.
2r	.	2r	.	2r	.	2r	.	.	2r	.	.
=5	=5	=5	=5	=5	=5	=5	=5	=5	=5	=5	=5
2F\	Chri-	2F\	Chri-	2A/	Chri-	2f\	Chris-	.	2cc\	Chri-	.
4A\	-ste	4A\	-ste	4F/	-ste	4c\	-te	.	4a\	-ste	.
4F\	e-	4F\	e-	4A/	e-	4e-X\	e-	.	4cc\	e-	.
=6	=6	=6	=6	=6	=6	=6	=6	=6	=6	=6	=6
4B-\	-lei-	4B-\	-lei-	2F/	-lei-	4d\	-lei-	.	4b-\	-lei-	.
4F\	.	4F\	.	.	.	4c\	.	.	4a\	.	.
2BB-/	-son	2BB-/	-son	2F/	-son	2d\	-son	.	2b-\	-son	.
!	!	!	!	!	!	!LO:LB:g=original	!	!	!LO:LB:g=original	!	!
=7	=7	=7	=7	=7	=7	=7	=7	=7	=7	=7	=7
2.BB-/	e-	2.BB-/	e-	0r	.	4b-\	e-	.	4dd\	e-	.
.	.	.	.	.	.	4a\	.	.	4cc\	.	.
.	.	.	.	.	.	4g\	.	.	4b-\	.	.
!LO:SIC:v:s=4BBn/	!	!	!	!	!	!	!	!	!	!	!
4BB-/	.	4BBn/	.	.	.	4f\	.	.	4a\	.	.
=8	=8	=8	=8	=8	=8	=8	=8	=8	=8	=8	=8
2C/	-lei-	2C/	-lei-	.	.	2f\	-lei-	.	2a\	-lei-	.
2C/	-son	2C/	-son	.	.	2e\	-son,	.	2g\	-son	.
=9	=9	=9	=9	=9	=9	=9	=9	=9	=9	=9	=9
4c\	Chri-	4c\	Chri-	1B-X	Chri-	1g	Chris-	.	1ee	Chris-	.
4G\	.	4G\	.	.	.	.	.	.	.	.	.
4E\	.	4E\	.	.	.	.	.	.	.	.	.
4C\	.	4C\	.	.	.	.	.	.	.	.	.
!LO:LB:g=original	!	!	!	!LO:LB:g=original	!	!	!	!	!	!	!
=10	=10	=10	=10	=10	=10	=10	=10	=10	=10	=10	=10
4F\	-ste	4F\	-ste	2A\	-ste	2a\	-te	.	2ff\	-te	.
4c\	.	4c\	.	.	.	.	.	.	.	.	.
4A\	e-	4A\	e-	4c\	e-	4f\	e-	.	2cc\	e-	.
4F\	.	4F\	.	4A\	.	4a\	.	.	.	.	.
=11	=11	=11	=11	=11	=11	=11	=11	=11	=11	=11	=11
2BB-/	-lei-	2BB-/	-lei-	2B-\	-lei-	2g\	-lei-	.	2dd\	-lei-	.
2C/	.	2C/	.	2G\	.	2e\	.	.	2cc\	.	.
=12	=12	=12	=12	=12	=12	=12	=12	=12	=12	=12	=12
2F\	-son	2F\	-son	2A/	-son	2f\	-son	.	2cc\	-son	.
2r	.	2r	.	2r	.	2r	.	.	2r	.	.
=13	=13	=13	=13	=13	=13	=13	=13	=13	=13	=13	=13
!	!	!	!	!	!	!	!	!LO:DY:a:t=p&colon;:rj	!	!	!LO:DY:a:t=p.:rj
2F\	Chri-	2F\	Chri-	2A/	Chri-	2f\	Chris-	p	2cc\	Chris-	p
4A\	-ste	4A\	-ste	4F/	-ste	4c\	-te	.	4a\	-te	.
4F\	e-	4F\	e-	4A/	e-	4e-X\	e-	.	4cc\	e-	.
=14	=14	=14	=14	=14	=14	=14	=14	=14	=14	=14	=14
4B-\	-lei-	4B-\	-lei-	2F/	-lei-	4d\	-lei-	.	4b-\	-lei-	.
4F\	.	4F\	.	.	.	4c\	.	.	4a\	.	.
2BB-/	-son	2BB-/	-son	2F/	-son	2d\	-son	.	2b-\	-son	.
!	!	!LO:LB:g=original	!	!	!	!LO:LB:g=original	!	!	!LO:LB:g=original	!	!
=15	=15	=15	=15	=15	=15	=15	=15	=15	=15	=15	=15
2.BB-/	e-	2.BB-/	e-	0r	.	4b-\	e-	.	4dd\	e-	.
.	.	.	.	.	.	4a\	.	.	4cc\	.	.
.	.	.	.	.	.	4g\	.	.	4b-\	.	.
4BBn/	.	4BBn/	.	.	.	4f\	.	.	4a\	.	.
=16	=16	=16	=16	=16	=16	=16	=16	=16	=16	=16	=16
2C/	-lei-	2C/	-lei-	.	.	2f\	-lei-	.	2a\	-lei-	.
2C/	-son	2C/	-son	.	.	2e\	-son	.	2g\	-son	.
=17	=17	=17	=17	=17	=17	=17	=17	=17	=17	=17	=17
!	!	!	!	!	!	!	!	!LO:DY:a:t=fo:rj	!	!	!LO:DY:a:rj
4C\	Chri-	4C\	Chri-	1B-X	Chri-	1g	Chris-	f	1ee	Chris-	f
4G\	.	4G\	.	.	.	.	.	.	.	.	.
4E\	.	4E\	.	.	.	.	.	.	.	.	.
4C\	.	4C\	.	.	.	.	.	.	.	.	.
=18	=18	=18	=18	=18	=18	=18	=18	=18	=18	=18	=18
4F\	-ste	4F\	-ste	2A\	-ste	2a\	-te	.	2ff\	-te	.
4c\	.	4c\	.	.	.	.	.	.	.	.	.
4A\	e-	4A\	e-	4c\	e-	4f\	e-	.	2cc\	e-	.
4F\	.	4F\	.	4A\	.	4a\	.	.	.	.	.
=19	=19	=19	=19	=19	=19	=19	=19	=19	=19	=19	=19
2BB-/	-lei-	2BB-/	-lei-	2B-\	-lei-	2g\	-lei-	.	2dd\	-lei-	.
2C/	.	2C/	.	2G/	.	2e\	.	.	2cc\	.	.
=20	=20	=20	=20	=20	=20	=20	=20	=20	=20	=20	=20
!LO:TX:a:t=Kyrie\nda\n Capo	!	!LO:TX:a:t=Kyrie da Capo	!	!	!	!	!	!	!	!	!
1F	-son	1F	-son	2A/	-son	2f\	-son	.	2cc\	-son	.
!	!	!	!	!	!	!LO:TX:a:t=Kyrie da Capô	!	!	!LO:TX:a:t=Kyrie da Capo	!	!
.	.	.	.	2r	.	2r	.	.	2r	.	.
!LO:LB:g=original	!	!LO:LB:g=original	!	!LO:LB:g=original	!	!LO:LB:g=original	!	!	!LO:LB:g=original	!	!
==	==	==;;	==	==;;	==	==;;	==	==	==;;	==	==
*-	*-	*-	*-	*-	*-	*-	*-	*-	*-	*-	*-
!!!system-decoration: [(s1,s2,s3,s4)]s5
!!!ENC: Berenika Jozajtis
!!!END: 2024-02-27
!!!EED: Marta Chmielewska
!!!EEV: 2024-05-02
